alura/assets/api/cursos/consultas-avanzadas-microsoft-sql-server-2019.svg

<svg width="50" height="50" viewBox="0 0 50 50" fill="none" xmlns="http://www.w3.org/2000/svg">
<path d="M5 41.2L17.4 45.8L44.6 36.8L45 24.9L35.2 21.2L35.7 5.2L25.9 1.5L16 4.6L15.8 9.8L5.9 12.9L5 41.2Z" fill="#AFE55D"/>
<path d="M5.80005 15.5L35.7001 5.6V5.2L25.9 1.5L16 4.6L15.8 9.8L5.90005 12.9L5.80005 15.5Z" fill="#C3FF68"/>
<path d="M35.7001 5.6L25.7001 8.7L16.0001 5M25.1001 30.1L25.7001 8.7M34.8001 33.8L24.9001 36.9L15.1001 33.2" stroke="#031326" stroke-width="0.25" stroke-miterlimit="10" stroke-linecap="round"/>
<path d="M14.7999 44.8L15.0999 33.2L25.0999 30.1L34.7999 33.8L34.4999 45.4M24.8999 36.9L24.4999 48.5M44.9999 25.2L34.9999 28.3L25.1999 24.6M35.1999 21.5L25.2999 24.6M34.9999 28.3L34.4999 45.4M25.5999 13.5L15.5999 17L5.8999 13.3M15.7999 10.2L25.5999 13.9M15.5999 17L14.7999 44.8" stroke="#031326" stroke-width="0.25" stroke-miterlimit="10" stroke-linecap="round"/>
<path d="M44.6 36.8L45 24.9L35.2 21.2L35.7 5.2L25.9 1.5L16 4.6L15.8 9.8L5.9 12.9L5 41.2L24.5 48.5L33.6 45.7" stroke="#031326" stroke-width="2.5" stroke-miterlimit="10" stroke-linecap="round"/>
</svg>

<svg xmlns="http://www.w3.org/2000/svg" id="Layer_1" viewBox="0 0 50 50"><style>.st2{fill:none;stroke:#031326;stroke-width:.25;stroke-linecap:round;stroke-miterlimit:10}</style><path fill="#e589ef" d="M5 41.2l12.4 4.6 27.2-9 .4-11.9-9.8-3.7.5-16-9.8-3.7L16 4.6l-.2 5.2-9.9 3.1z"/><path fill="#f799ff" d="M5.8 15.5l29.9-9.9v-.4l-9.8-3.7L16 4.6l-.2 5.2-9.9 3.1z"/><path d="M35.7 5.6l-10 3.1L16 5m9.1 25.1l.6-21.4m9.1 25.1l-9.9 3.1-9.8-3.7" class="st2"/><path d="M14.8 44.8l.3-11.6 10-3.1 9.7 3.7-.3 11.6m-9.6-8.5l-.4 11.6M45 25.2l-10 3.1-9.8-3.7m10-3.1l-9.9 3.1m9.7 3.7l-.5 17.1m-8.9-31.9l-10 3.5-9.7-3.7m9.9-3.1l9.8 3.7m-10 3.1l-.8 27.8" class="st2"/><path fill="none" stroke="#031326" stroke-linecap="round" stroke-miterlimit="10" stroke-width="2.5" d="M44.6 36.8l.4-11.9-9.8-3.7.5-16-9.8-3.7L16 4.6l-.2 5.2-9.9 3.1L5 41.2l19.5 7.3 9.1-2.8"/></svg>
